!! 00000] TT[WS
!!!OTL: Lihongtai zhonggua
!!!ARE: Asia, China, Shanxi Lanxian
!! Ethnic Group: Han
!! WII, 41 (2)
!!!SCT: J0455
!!!YEM: Copyright 1995, estate of Helmut Schaffrath.
**kern
*ICvox
*Ivox
*M2/4
*k[b-e-]
*B-:
{8cc
8b-
4cc
=1
8cc
8ff
8ee-
8ff
=2
4cc
8b-
8cc
=3
8ff
16dd
16cc
8b-
8f}
=4
{8b-
8f
4b-
=5
8cc
8dd
8cc
8b-
=6
8g
16f
16g
8b-
8g
=7
2f}
==
!!!AGN: Xiaodiao, Tiange. Laodong, Zhongzhi
!!!ONB: ESAC (Essen Associative Code) Database: CHINA
!!!AMT: simple duple
!!!AIN: vox
!!!EED: Helmut Schaffrath
!!!EEV: 1.0
*-
